UI/Core-UI/SVG/edit_outline_24px.svg

<svg width="24" height="24" viewBox="0 0 24 24" fill="none" xmlns="http://www.w3.org/2000/svg">
<path d="M3.07998 16.66L1.99998 20.73C1.95732 20.8817 1.95112 21.0413 1.98188 21.1959C2.01264 21.3504 2.07949 21.4955 2.17697 21.6193C2.27446 21.7432 2.39983 21.8422 2.54285 21.9083C2.68588 21.9745 2.84251 22.0059 2.99998 22C3.09285 22.0131 3.18711 22.0131 3.27998 22L7.34998 21L18.18 10.11L13.91 5.84L3.07998 16.66ZM6.31998 19.12L4.38998 19.62L4.87998 17.68L13.88 8.68L15.32 10.12L6.31998 19.12ZM21.71 5.12L18.86 2.31C18.767 2.21628 18.6564 2.14188 18.5346 2.09111C18.4127 2.04034 18.282 2.01421 18.15 2.01421C18.018 2.01421 17.8873 2.04034 17.7654 2.09111C17.6435 2.14188 17.5329 2.21628 17.44 2.31L15.32 4.42L16.74 5.84L18.16 4.43L19.57 5.84L18.16 7.26L19.59 8.69L21.67 6.61C21.7725 6.51923 21.8553 6.40837 21.9132 6.28429C21.9711 6.16021 22.003 6.02556 22.0067 5.88868C22.0105 5.7518 21.9861 5.61561 21.935 5.48854C21.884 5.36148 21.8074 5.24625 21.71 5.15V5.12Z" fill="#0F1621"/>
</svg>

<svg xmlns="http://www.w3.org/2000/svg" width="24" height="24" viewBox="0 0 24 24"><rect width="24" height="24" style="fill:none"/><path d="M3.08,16.66,2,20.73A1,1,0,0,0,3,22a1,1,0,0,0,.28,0l4.07-1L18.18,10.11,13.91,5.84Zm3.24,2.46-1.93.5.49-1.94,9-9,1.44,1.44Zm15.39-14L18.86,2.31a1,1,0,0,0-1.42,0L15.32,4.42l1.42,1.42,1.42-1.41,1.41,1.41L18.16,7.26l1.43,1.43,2.08-2.08A1,1,0,0,0,21.71,5.15Z"/></svg>
